actions/24/itmages-utils.svg

<?xml version="1.0" encoding="UTF-8" standalone="no"?>
<svg
   width="24"
   height="24"
   version="1.1"
   id="svg9"
   sodipodi:docname="itmages-utils.svg"
   inkscape:version="1.1.2 (0a00cf5339, 2022-02-04)"
   xmlns:inkscape="http://www.inkscape.org/namespaces/inkscape"
   xmlns:sodipodi="http://sodipodi.sourceforge.net/DTD/sodipodi-0.dtd"
   xmlns="http://www.w3.org/2000/svg"
   xmlns:svg="http://www.w3.org/2000/svg">
  <sodipodi:namedview
     id="namedview11"
     pagecolor="#000000"
     bordercolor="#666666"
     borderopacity="1.0"
     inkscape:pageshadow="2"
     inkscape:pageopacity="0"
     inkscape:pagecheckerboard="0"
     showgrid="false"
     inkscape:zoom="40.187235"
     inkscape:cx="12.0063"
     inkscape:cy="11.968975"
     inkscape:window-width="1596"
     inkscape:window-height="967"
     inkscape:window-x="0"
     inkscape:window-y="29"
     inkscape:window-maximized="1"
     inkscape:current-layer="g7" />
  <defs
     id="defs3">
    <style
       id="current-color-scheme"
       type="text/css">
   .ColorScheme-Text { color:#eeeeec; } .ColorScheme-Highlight { color:#367bf0; } .ColorScheme-NeutralText { color:#ffcc44; } .ColorScheme-PositiveText { color:#3db47e; } .ColorScheme-NegativeText { color:#dd4747; }
  </style>
  </defs>
  <g
     transform="translate(4,4)"
     id="g7">
    <path
       style="fill:currentColor"
       class="ColorScheme-Text"
       d="m 11,0.41004063 c 0,0 -0.253489,-0.30574466 -0.373167,-0.24446751 C 9.6498424,0.66581017 9,1.5631803 9,2.6504 c 0,1.2204 0.8188,2.174 2,2.623 v 2.4278 c 0.946019,0.4702619 1.765217,1.1567797 2.403549,1.9937564 C 13.624857,9.9851333 14,9.6963621 14,9.6963621 v 0 V 5.2734 c 1.181,-0.449 2,-1.4026 2,-2.623 0,-1.0963669 -0.660985,-1.99967628 -1.651611,-2.49736852 -0.112071,-0.05630443 0,0 0,0 L 14,0.41004063 V 2 c 0,1 -1,1 -1,1 H 12 C 12,3 11,3 11,2 Z M 8,8 C 4.676,8 2,10.676 2,14 H 0 v 2 H 16 V 14 H 14 C 14,10.676 11.324,8 8,8 Z m 0,3 c 1.662,0 3,1.338 3,3 H 5 c 0,-1.662 1.338,-3 3,-3 z"
       id="path5"
       sodipodi:nodetypes="cssccscccssccsccsccsccccccssccs" />
  </g>
</svg>

<svg xmlns="http://www.w3.org/2000/svg" width="24" height="24" version="1.1">
 <defs>
  <style id="current-color-scheme" type="text/css">
   .ColorScheme-Text { color:#eeeeec; } .ColorScheme-Highlight { color:#367bf0; } .ColorScheme-NeutralText { color:#ffcc44; } .ColorScheme-PositiveText { color:#3db47e; } .ColorScheme-NegativeText { color:#dd4747; }
  </style>
 </defs>
 <g transform="translate(4,4)">
  <path style="fill:currentColor" class="ColorScheme-Text" d="M 11 0 C 9.8188 0.44881 9 1.43 9 2.6504 C 9 3.8708 9.8188 4.8244 11 5.2734 L 11 7.7012 C 12.274 8.3345 13.318 9.36 14 10.617 L 14 5.2734 C 15.181 4.8244 16 3.8708 16 2.6504 C 16 1.43 15.181 0.44881 14 0 L 14 2 C 14 3 13 3 13 3 L 12 3 C 12 3 11 3 11 2 L 11 0 z M 8 8 C 4.676 8 2 10.676 2 14 L 0 14 L 0 16 L 16 16 L 16 14 L 14 14 C 14 10.676 11.324 8 8 8 z M 8 11 C 9.662 11 11 12.338 11 14 L 5 14 C 5 12.338 6.338 11 8 11 z"/>
 </g>
</svg>
